assets/img/svg/death-fill.svg

<svg width="18" height="19" viewBox="0 0 18 19" fill="none" xmlns="http://www.w3.org/2000/svg">
<circle cx="9" cy="9.5" r="9" fill="#D10026"/>
<path fill-rule="evenodd" clip-rule="evenodd" d="M6.11019 4.95109C5.96097 4.99131 5.87281 5.04514 5.74743 5.17257C5.61926 5.30287 5.49952 5.52018 5.42546 5.75684L5.38573 5.88384L5.25886 5.92361C4.80696 6.06528 4.51274 6.32348 4.44635 6.63668C4.41941 6.76379 4.42098 6.82215 4.45511 6.96103C4.54106 7.31101 4.79135 7.55134 5.12502 7.6043C5.33234 7.6372 5.37929 7.63837 5.7026 7.61866L6.02311 7.59913L6.13139 7.71449C6.19096 7.77796 6.25721 7.8446 6.27859 7.86259C6.32858 7.90461 6.43194 7.92777 6.51171 7.91483C6.59608 7.90111 6.70397 7.79622 6.72881 7.70376C6.76354 7.57441 6.7319 7.51279 6.52015 7.29749C6.25328 7.02612 6.26648 7.03017 5.6691 7.03718C5.2299 7.04234 5.20006 7.04061 5.14369 7.00688C5.0731 6.96464 5.01586 6.86242 5.01586 6.77862C5.01586 6.6566 5.21873 6.53045 5.55249 6.44493C5.65922 6.41759 5.76744 6.38151 5.79297 6.36476C5.85811 6.32205 5.90503 6.23757 5.92775 6.1221C5.99527 5.77916 6.14885 5.51361 6.27965 5.51361C6.36337 5.51361 6.46549 5.57091 6.50769 5.64157C6.54139 5.69799 6.54312 5.72786 6.53796 6.16749C6.53095 6.76544 6.52692 6.75222 6.79802 7.01935C7.00636 7.22465 7.06714 7.25739 7.18881 7.22992C7.32815 7.19847 7.41753 7.08462 7.41537 6.94136C7.4138 6.83708 7.38977 6.79732 7.22533 6.62691L7.10026 6.49729L7.11985 6.19771C7.14968 5.74123 7.11286 5.50447 6.97974 5.29681C6.87583 5.13471 6.67651 5.00175 6.46137 4.951C6.32151 4.918 6.23287 4.91802 6.11019 4.95109ZM11.5183 4.95613C11.299 5.01747 11.1216 5.13879 11.0203 5.29681C10.8863 5.50581 10.8507 5.73928 10.8808 6.20998L10.9007 6.52185L10.7854 6.63024C10.6292 6.7772 10.6073 6.80553 10.5892 6.88486C10.5424 7.09042 10.7388 7.28315 10.9391 7.2281C10.9924 7.21344 11.0576 7.16173 11.2021 7.01935C11.4732 6.75222 11.4691 6.76544 11.4621 6.16749C11.457 5.73478 11.4591 5.69735 11.4908 5.64495C11.5323 5.57633 11.6384 5.51361 11.7131 5.51361C11.8408 5.51361 11.9677 5.71394 12.0542 6.05217C12.0813 6.15822 12.1172 6.26592 12.1339 6.29147C12.1766 6.35667 12.261 6.40364 12.3763 6.42638C12.7189 6.49397 12.9842 6.64769 12.9842 6.77862C12.9842 6.86242 12.927 6.96464 12.8564 7.00688C12.8 7.04061 12.7702 7.04234 12.331 7.03718C11.7336 7.03017 11.7469 7.02612 11.4798 7.29749C11.335 7.44462 11.2861 7.50665 11.2713 7.56184C11.244 7.66338 11.2742 7.75994 11.3583 7.84025C11.4332 7.91175 11.5135 7.93346 11.6168 7.91014C11.6956 7.89236 11.7267 7.86854 11.8705 7.71614L11.9807 7.59938L12.2904 7.61914C12.8504 7.65484 13.1027 7.59713 13.3145 7.38496C13.4288 7.27041 13.527 7.07779 13.5571 6.90904C13.6195 6.55958 13.4241 6.23541 13.0371 6.04606C12.9441 6.00058 12.811 5.94548 12.7412 5.92361L12.6144 5.88384L12.5744 5.75684C12.3794 5.1379 11.9723 4.82918 11.5183 4.95613ZM8.57125 6.87331C8.09377 6.93917 7.67425 7.10102 7.35236 7.34352C7.17905 7.47407 6.95662 7.70756 6.83825 7.8831C6.55002 8.31068 6.40718 8.8502 6.40743 9.51051C6.40757 9.92725 6.46244 10.2117 6.59717 10.4942C6.73542 10.7842 6.92877 10.989 7.19517 11.1277C7.3304 11.1982 7.5583 11.2721 7.64018 11.2721H7.68354L7.67304 11.8609C7.66268 12.4411 7.66311 12.4509 7.7015 12.5271C7.77468 12.6723 7.98038 12.7279 8.1043 12.636C8.24694 12.5303 8.25434 12.475 8.24646 11.5761C8.24079 10.932 8.24019 10.9225 8.19984 10.8576C8.14417 10.768 8.0359 10.7177 7.89848 10.7177C7.76192 10.7177 7.53509 10.6601 7.43086 10.599C7.06678 10.3854 6.91404 9.84383 7.0097 9.10576C7.04432 8.83867 7.102 8.6297 7.1954 8.43293C7.28552 8.24308 7.35329 8.14461 7.49818 7.99294C7.64894 7.83514 7.79289 7.73274 8.00616 7.63162C8.31987 7.48287 8.73333 7.41196 9.1519 7.4351C9.69474 7.46511 10.1116 7.62497 10.4332 7.92647C10.7533 8.22648 10.923 8.58556 10.9904 9.10576C11.086 9.84383 10.9333 10.3854 10.5692 10.599C10.465 10.6601 10.2382 10.7177 10.1016 10.7177C9.96418 10.7177 9.85591 10.768 9.80024 10.8576L9.75936 10.9234V11.6924C9.75936 12.3744 9.7627 12.4674 9.78893 12.515C9.90797 12.731 10.2084 12.7339 10.304 12.52C10.3353 12.4502 10.3368 12.4063 10.327 11.8587L10.3165 11.2721H10.3599C10.4418 11.2721 10.6697 11.1982 10.8049 11.1277C11.2265 10.9082 11.4849 10.4993 11.5725 9.91295C11.6146 9.63133 11.5937 9.12325 11.5262 8.78629C11.3253 7.78308 10.6487 7.11193 9.63197 6.90732C9.47755 6.87624 9.3609 6.86712 9.06257 6.86276C8.85622 6.85975 8.63512 6.86449 8.57125 6.87331ZM7.89233 8.7213C7.75367 8.76265 7.72201 8.78076 7.63338 8.86948C7.54429 8.95865 7.48459 9.07181 7.44791 9.22098C7.41987 9.33508 7.41857 9.59793 7.44555 9.69804C7.5005 9.90195 7.63606 10.0689 7.82013 10.1594C7.90678 10.202 7.9403 10.208 8.08886 10.208C8.23445 10.208 8.27097 10.2017 8.34562 10.1635C8.6939 9.9855 8.80507 9.39125 8.56174 9.00826C8.41824 8.78241 8.11843 8.65388 7.89233 8.7213ZM9.87622 8.70903C9.48936 8.78997 9.25769 9.16579 9.31967 9.61184C9.34918 9.82431 9.40112 9.94172 9.51679 10.0575C9.64441 10.1852 9.74814 10.2233 9.9437 10.2143C10.2333 10.2009 10.4737 9.99852 10.5538 9.70056C10.5805 9.60149 10.5795 9.33223 10.5521 9.2208C10.4969 8.99629 10.3778 8.83588 10.2086 8.75835C10.1154 8.71565 9.95698 8.69213 9.87622 8.70903ZM8.87446 10.043C8.78732 10.0905 8.63496 10.2701 8.6013 10.3651C8.57384 10.4425 8.57198 10.4692 8.58924 10.538C8.61407 10.6369 8.67875 10.7256 8.75475 10.7649C8.84083 10.8095 9.1298 10.8138 9.2253 10.772C9.31588 10.7323 9.38372 10.646 9.41161 10.5349C9.44398 10.406 9.39999 10.3032 9.24763 10.1519C9.12971 10.0347 9.12382 10.0314 9.02309 10.025C8.95743 10.0208 8.90313 10.0274 8.87446 10.043ZM6.49876 10.9528C6.45472 10.9658 6.37378 11.0351 6.22496 11.1873L6.01371 11.4035L5.70684 11.3838C5.03204 11.3406 4.73175 11.4534 4.53756 11.8228C4.48053 11.9313 4.42627 12.1229 4.42627 12.2157C4.42627 12.5873 4.72919 12.9086 5.23195 13.0703L5.38549 13.1196L5.43484 13.2733C5.57913 13.7228 5.83336 13.9992 6.1606 14.0625C6.32994 14.0952 6.54893 14.0492 6.72402 13.9439C6.85341 13.8662 6.91322 13.8102 6.98261 13.702C7.11272 13.499 7.14947 13.2587 7.11983 12.8051L7.10021 12.5052L7.28843 12.3134C7.39195 12.2079 7.48978 12.0958 7.50583 12.0643C7.62519 11.8302 7.37864 11.5683 7.13691 11.6724C7.10528 11.686 6.96993 11.8088 6.83613 11.9451C6.51777 12.2696 6.53078 12.2306 6.53798 12.84C6.5431 13.2754 6.54137 13.3053 6.50769 13.3617C6.46549 13.4323 6.36337 13.4896 6.27965 13.4896C6.15775 13.4896 6.03172 13.2866 5.94628 12.9525C5.91896 12.8457 5.88293 12.7373 5.86619 12.7118C5.8234 12.6464 5.73891 12.5995 5.62376 12.5772C5.28303 12.5113 5.01586 12.3557 5.01586 12.2233C5.01586 12.1432 5.07651 12.0375 5.14707 11.9948C5.19943 11.963 5.23665 11.961 5.66871 11.9662C6.28177 11.9736 6.24143 11.9881 6.59136 11.6344C6.87274 11.35 6.90261 11.3009 6.87345 11.1715C6.83579 11.0043 6.66418 10.9042 6.49876 10.9528ZM11.3137 10.9592C11.1723 11.0092 11.0903 11.1598 11.1283 11.2995C11.1435 11.3554 11.2031 11.4265 11.4087 11.6344C11.7586 11.9881 11.7183 11.9736 12.3314 11.9662C12.8563 11.9599 12.8725 11.9633 12.9468 12.0956C13.0403 12.2621 12.9591 12.3749 12.6599 12.4942C12.5945 12.5203 12.4836 12.5537 12.4135 12.5684C12.2079 12.6117 12.128 12.6712 12.0915 12.808C11.9887 13.1941 11.9324 13.3316 11.8362 13.4315C11.7686 13.5016 11.691 13.5082 11.5915 13.4522C11.4595 13.3779 11.4559 13.3611 11.4623 12.8405C11.4697 12.2312 11.4826 12.2699 11.164 11.9451C11.0302 11.8088 10.8948 11.686 10.8632 11.6724C10.676 11.5918 10.4651 11.7303 10.4651 11.9339C10.4651 12.0445 10.512 12.1129 10.7298 12.3193L10.9007 12.4812L10.8808 12.7932C10.8431 13.382 10.9209 13.6729 11.1683 13.8686C11.6339 14.237 12.181 14.0981 12.4523 13.5425C12.4977 13.4495 12.5527 13.3163 12.5746 13.2466L12.6142 13.1198L12.768 13.0703C13.0929 12.9658 13.3827 12.7606 13.4821 12.5647C13.5292 12.4719 13.5738 12.3051 13.5738 12.2218C13.5738 12.1234 13.521 11.934 13.4625 11.8228C13.268 11.4527 12.9683 11.3406 12.2899 11.3841L11.9796 11.4039L11.7697 11.1875C11.6072 11.02 11.5441 10.9667 11.4903 10.9518C11.4046 10.928 11.4015 10.9281 11.3137 10.9592ZM8.58186 11.5768C8.50784 11.599 8.41249 11.6981 8.39391 11.7722C8.38517 11.807 8.37274 11.9772 8.36625 12.1505C8.35667 12.4062 8.35937 12.4775 8.38047 12.528C8.47365 12.7512 8.77655 12.7715 8.8987 12.5627C8.92552 12.5169 8.93383 12.4469 8.94521 12.1713C8.95321 11.9774 8.95221 11.811 8.94283 11.777C8.91743 11.6848 8.83283 11.6011 8.74202 11.5782C8.65231 11.5556 8.65272 11.5556 8.58186 11.5768ZM9.24452 11.5841C9.16309 11.6132 9.11349 11.6554 9.07549 11.7281C9.05321 11.7707 9.04803 11.8354 9.05051 12.0411C9.05482 12.399 9.06829 12.5139 9.1139 12.5816C9.23368 12.7595 9.5031 12.7467 9.6036 12.5583C9.64492 12.4809 9.64557 12.4725 9.63406 12.1573C9.62759 11.9803 9.61512 11.807 9.60631 11.7722C9.58657 11.6942 9.49168 11.5993 9.40993 11.5758C9.33384 11.554 9.32823 11.5543 9.24452 11.5841Z" fill="#F5F5F5"/>
</svg>

<svg width="18" height="19" fill="none" xmlns="http://www.w3.org/2000/svg"><circle cx="9" cy="9.5" r="9" fill="#D10026"/><path fill-rule="evenodd" clip-rule="evenodd" d="M6.11 4.951a.708.708 0 0 0-.363.222c-.128.13-.247.347-.322.584l-.04.127-.126.04c-.452.141-.746.4-.813.713a.589.589 0 0 0 .01.324c.085.35.335.59.669.643.207.033.254.034.578.015l.32-.02.108.115c.06.064.126.13.148.149.05.042.153.065.233.052.084-.014.192-.119.217-.211.035-.13.003-.191-.209-.407-.267-.27-.254-.267-.85-.26-.44.005-.47.004-.526-.03a.294.294 0 0 1-.128-.228c0-.122.203-.249.536-.334a1.27 1.27 0 0 0 .241-.08c.065-.043.112-.127.135-.243.067-.343.22-.608.352-.608.083 0 .185.057.228.128.033.056.035.086.03.525-.007.598-.011.585.26.852.208.206.27.238.39.21a.283.283 0 0 0 .227-.288c-.001-.104-.025-.144-.19-.314l-.125-.13.02-.3c.03-.456-.007-.693-.14-.9a.866.866 0 0 0-.519-.346.634.634 0 0 0-.35 0Zm5.408.005a.854.854 0 0 0-.498.34c-.134.21-.17.443-.14.914l.02.312-.115.108c-.156.147-.178.176-.196.255-.047.205.15.398.35.343.053-.015.119-.066.263-.209.271-.267.267-.254.26-.852-.005-.432-.003-.47.029-.522a.307.307 0 0 1 .222-.131c.128 0 .255.2.341.538.027.106.063.214.08.24.043.065.127.112.242.134.343.068.608.222.608.353a.294.294 0 0 1-.128.228c-.056.034-.086.035-.525.03-.597-.007-.584-.01-.851.26-.145.148-.194.21-.209.265-.027.101.003.198.087.278a.26.26 0 0 0 .259.07c.079-.018.11-.041.253-.194l.11-.117.31.02c.56.036.813-.022 1.025-.234a.973.973 0 0 0 .242-.476c.063-.35-.133-.674-.52-.863a2.63 2.63 0 0 0-.296-.122l-.127-.04-.04-.127c-.195-.62-.602-.928-1.056-.8ZM8.571 6.873c-.477.066-.897.228-1.219.47a2.68 2.68 0 0 0-.514.54c-.288.428-.43.967-.43 1.628 0 .416.054.7.19.983.137.29.33.495.597.634.135.07.363.144.445.144h.044l-.011.589c-.01.58-.01.59.029.666.073.145.278.2.402.109.143-.106.15-.161.142-1.06-.005-.644-.006-.654-.046-.718-.056-.09-.164-.14-.302-.14-.136 0-.363-.058-.467-.119-.364-.214-.517-.755-.421-1.493a2.16 2.16 0 0 1 .185-.673c.09-.19.158-.288.303-.44.15-.158.295-.26.508-.361.314-.15.727-.22 1.146-.197.543.03.96.19 1.281.491.32.3.49.66.557 1.18.096.738-.057 1.28-.42 1.493a1.166 1.166 0 0 1-.468.119c-.138 0-.246.05-.302.14l-.04.065v.77c0 .681.003.774.029.822.119.216.42.219.515.005.031-.07.033-.114.023-.661l-.01-.587h.043c.082 0 .31-.074.445-.144.421-.22.68-.629.768-1.215.042-.282.02-.79-.047-1.127-.2-1.003-.877-1.674-1.894-1.879a2.843 2.843 0 0 0-.57-.044 5.156 5.156 0 0 0-.49.01Zm-.679 1.848a.461.461 0 0 0-.259.148.72.72 0 0 0-.185.352 1.39 1.39 0 0 0-.002.477c.054.204.19.37.374.461.087.043.12.049.269.049.145 0 .182-.006.257-.044.348-.178.46-.773.216-1.156-.144-.226-.444-.354-.67-.287Zm1.984-.012c-.387.081-.618.457-.556.903.03.212.081.33.197.445.127.128.231.166.427.157a.667.667 0 0 0 .61-.513c.027-.1.025-.369-.002-.48-.055-.225-.174-.385-.343-.463a.668.668 0 0 0-.333-.049Zm-1.002 1.334a.845.845 0 0 0-.273.322c-.027.078-.029.104-.012.173.025.099.09.188.166.227.086.044.375.049.47.007a.341.341 0 0 0 .187-.237c.032-.129-.012-.232-.164-.383-.118-.117-.124-.12-.225-.127a.306.306 0 0 0-.149.018Zm-2.375.91c-.044.013-.125.082-.274.234l-.211.216-.307-.02c-.675-.042-.975.07-1.17.44-.056.108-.11.3-.11.393 0 .371.302.693.805.854l.153.05.05.153c.144.45.398.726.726.79a.85.85 0 0 0 .563-.12.671.671 0 0 0 .259-.241c.13-.203.166-.443.137-.897l-.02-.3.188-.192c.104-.105.202-.217.218-.249.12-.234-.127-.496-.37-.392a2.261 2.261 0 0 0-.3.273c-.318.325-.305.286-.298.895.005.435.003.465-.03.522a.294.294 0 0 1-.228.128c-.122 0-.248-.203-.334-.537a1.298 1.298 0 0 0-.08-.241c-.043-.066-.127-.112-.242-.135-.341-.066-.608-.221-.608-.354 0-.08.06-.186.131-.228.052-.032.09-.034.522-.029.613.008.572.022.922-.332.282-.284.312-.333.282-.463a.297.297 0 0 0-.374-.218Zm4.815.006a.287.287 0 0 0-.186.34c.015.056.075.128.28.335.35.354.31.34.923.332.525-.006.542-.003.616.13.093.166.012.279-.287.398-.066.026-.176.06-.246.074-.206.044-.286.103-.322.24-.103.386-.16.524-.256.623-.067.07-.145.077-.245.021-.131-.074-.135-.09-.129-.611.008-.61.02-.571-.298-.896a2.263 2.263 0 0 0-.3-.273.286.286 0 0 0-.399.262c0 .11.047.179.265.385l.17.162-.02.312c-.037.589.04.88.288 1.076.466.368 1.013.23 1.284-.326.046-.093.1-.227.123-.296l.04-.127.153-.05c.325-.104.615-.31.714-.505a.982.982 0 0 0 .092-.343c0-.099-.053-.288-.111-.4-.195-.37-.495-.481-1.173-.438l-.31.02-.21-.216c-.163-.168-.226-.221-.28-.236-.085-.024-.088-.024-.176.007Zm-2.732.618a.337.337 0 0 0-.188.195 3.599 3.599 0 0 0-.028.378c-.01.256-.007.327.014.378a.289.289 0 0 0 .519.035c.027-.046.035-.116.046-.392a2.64 2.64 0 0 0-.002-.394.297.297 0 0 0-.201-.199c-.09-.022-.09-.022-.16-.001Zm.663.007a.28.28 0 0 0-.17.144c-.022.043-.027.107-.024.313.004.358.017.473.063.54.12.178.39.166.49-.023.04-.077.042-.085.03-.4a3.661 3.661 0 0 0-.028-.386.327.327 0 0 0-.196-.196c-.076-.022-.082-.022-.165.008Z" fill="#F5F5F5"/></svg>
